app/assets/images/payment_icons/cartes_bancaires.svg

<svg width="38" height="24" role="img" viewBox="0 0 38 24" fill="none" xmlns="http://www.w3.org/2000/svg" aria-labelledby="pi-cartes_bancaires"><title id="pi-cartes_bancaires">Cartes Bancaires</title><rect x="1" y="1" width="36" height="22" rx="2" fill="url(#pi-cartes_bancaires-paint0_linear)"/><rect x=".5" y=".5" width="37" height="23" rx="2.5" stroke="#000" stroke-opacity=".07"/><path fill-rule="evenodd" clip-rule="evenodd" d="M28 9.934c0 1.067-.8 1.932-1.79 1.934v.002h-6.52V8h6.52c.99.002 1.79.867 1.79 1.934zm0 4.104c0 1.067-.8 1.932-1.79 1.934v.003h-6.52v-3.87h6.52c.99.002 1.79.867 1.79 1.933zm-13.224-1.934h4.788v.378c0 1.943-1.46 3.518-3.26 3.518H13.26C11.46 16 10 14.425 10 12.482v-.938c0-1.943 1.46-3.518 3.26-3.518h3.044c1.8 0 3.26 1.575 3.26 3.518v.326h-4.788v.234z" fill="#fff"/><defs><linearGradient id="pi-cartes_bancaires-paint0_linear" x1="37" y1="1" x2="17.422" y2="33.036" gradientUnits="userSpaceOnUse"><stop stop-color="#083969"/><stop offset=".492" stop-color="#007B9D"/><stop offset="1" stop-color="#00A84A"/></linearGradient></defs></svg>

<svg xmlns="http://www.w3.org/2000/svg" width="38" height="24" viewBox="0 0 38 24" fill="none" aria-labelledby="pi-cartes_bancaires" role="img"><title id="pi-cartes_bancaires">Cartes Bancaires</title><rect width="38" height="24" fill="url(#pi-cartes_bancaires-paint0_linear_4071_345)"/><path fill-rule="evenodd" clip-rule="evenodd" d="M28 9.934C28 11.001 27.2 11.866 26.21 11.868V11.87H19.69V8H26.21C27.2 8.002 28 8.867 28 9.934ZM28 14.038C28 15.105 27.2 15.97 26.21 15.972V15.975H19.69V12.105H26.21C27.2 12.107 28 12.972 28 14.038ZM14.776 12.104H19.564V12.482C19.564 14.425 18.104 16 16.304 16H13.26C11.46 16 10 14.425 10 12.482V11.544C10 9.601 11.46 8.026 13.26 8.026H16.304C18.104 8.026 19.564 9.601 19.564 11.544V11.87H14.776V12.104Z" fill="white"/><defs><linearGradient id="pi-cartes_bancaires-paint0_linear_4071_345" x1="38" y1="-5.78839e-07" x2="16.3282" y2="34.3129" gradientUnits="userSpaceOnUse"><stop stop-color="#083969"/><stop offset="0.492" stop-color="#007B9D"/><stop offset="1" stop-color="#00A84A"/></linearGradient></defs></svg>
